X:1
T:Title
%%score { ( 1 4 ) | ( 2 3 ) }
L:1/8
Q:1/4=100
M:4/4
K:D
V:1 treble nm="Grand Piano"
V:4 treble 
V:2 bass 
V:3 bass 
V:1
 [FA]3 [FA] [=F^G][^FA][=GB][FA] | [GB]4 [Gd]2 z2 | [FA]3 [FA] [=F^G][^FA][=GB][FA] | A4 E2 z2 | %4
w: W.~H.~Doane * * * * *||||
 [FA]3 [FA] [=F^G][^FA][=GB][FA] |[M:9/8] B3- B d2- ddB |[M:4/4] A3 F F2 [CE]2 | D6 z2 | %8
w: ||||
 [CE]3 [DF] [EG][GB][FA][EG] | [DF]4 [FA]2 z2 | [GB]3 [Ac] [ce][Bd][Ac][GB] | [FA]6 z2 | %12
w: ||||
 [FA]3 [FA] [=F^G][^FA][Ae][Ad] |[M:9/8] d3- d B2- Bd>B |[M:4/4] A3 F F2 [CE]2 |[M:3/4] D4 z2 | %16
w: ||||
[M:1/4] AA |[M:4/4] B4 z4 | [FA]4 z4 | c4 z4 | [F-d]4 F2 z2 | [Fd]3 [Fd] [Ec][Fd][Ge][Fd] | %22
w: ||||||
[M:9/8] d3- d B2- Bd>B |[M:4/4] A3 F F2 [CE]2 | D6 z2 |] %25
w: |||
V:2
 [D,D]3 [D,D] [D,D][D,D][D,D][D,D] | [G,D]4 [G,B,]2 z2 | [D,D]3 [D,D] [D,D][D,D][D,D][D,D] | %3
 E4 z4 | [D,D]3 [D,D] [D,D][D,D][D,D][D,D] | %5
[M:9/8][K:treble] [G,DG]3- [G,DG] [G,B,G]2- [G,B,G][G,B,G][G,DG] | %6
[M:4/4] [A,DF]3[K:bass] [A,D] [A,D]2 [A,,G,]2 | [D,F,]6 z2 | %8
 [A,,A,]3 [A,,A,] [A,,A,][A,,A,][A,,A,][A,,A,] | [D,A,]4 [D,D]2 z2 | %10
 [G,D]3 [G,D] [G,D][G,D][G,D][G,D] | [D,D]6 z2 | [D,D]3 [D,D] [D,D][D,D][F,D][F,D] | %13
[M:9/8][K:treble] [G,B,G]3- [G,B,G] [G,DG]2- [G,DG][G,B,G]>[G,DG] | %14
[M:4/4] [A,DF]3[K:bass] [A,D] [A,D]2 [A,,G,]2 |[M:3/4] [D,F,]4 z2 |[M:1/4][K:treble] FF | %17
[M:4/4] G4 z2 [G,D]2 | D,D,D,D, D,2[K:treble] FF | G4 z4 | D,2 D,D, [D,D]2 [D,D][D,D] | %21
 [D,A,]3 [D,A,] [D,A,][D,A,][D,A,][D,A,] | %22
[M:9/8][K:treble] [G,B,G]3- [G,B,G] [G,DG]2- [G,DG][G,B,G]>[G,DG] | %23
[M:4/4] [A,DF]3[K:bass] [A,D] [A,D]2 [A,,G,]2 | [D,F,]6 z2 |] %25
V:3
 x8 | x8 | x8 | [A,C]6 z2 | x8 |[M:9/8][K:treble] x9 |[M:4/4] x3[K:bass] x5 | x8 | x8 | x8 | x8 | %11
 x8 | x8 |[M:9/8][K:treble] x9 |[M:4/4] x3[K:bass] x5 |[M:3/4] x6 |[M:1/4][K:treble] x2 | %17
[M:4/4] z2 G,G, [G,D]2 z G | x6[K:treble] x2 | z2 A,[A,EG] [A,EG][A,EG][A,EG][A,EG] | x8 | x8 | %22
[M:9/8][K:treble] x9 |[M:4/4] x3[K:bass] x5 | x8 |] %25
V:4
 x8 | x8 | x8 | x8 | x8 |[M:9/8] x9 |[M:4/4] x8 | x8 | x8 | x8 | x8 | x8 | x8 |[M:9/8] x9 | %14
[M:4/4] x8 |[M:3/4] x6 |[M:1/4] x2 |[M:4/4] z2 D[DAc] [Bd][^Ac][Bd]B | DA,A,A, [DF]2 Ad | %19
 z2 Ed ecBc | D2 DD A2 [FA][FA] | x8 |[M:9/8] x9 |[M:4/4] x8 | x8 |] %25

